packages/core/src/svgs/ego.svg

<svg width="24" height="24" viewBox="0 0 24 24" fill="none" xmlns="http://www.w3.org/2000/svg">
<g clip-path="url(#clip0_31_9783)">
<path d="M0 0H24V24H0V0Z" fill="#F0F3FA"/>
<path d="M12.0001 18.8574C13.2825 18.8567 14.539 18.4965 15.6269 17.8176C16.7148 17.1387 17.5906 16.1683 18.1547 15.0167C18.7188 13.8651 18.9487 12.5783 18.8182 11.3026C18.6878 10.0269 18.2022 8.81332 17.4166 7.79972C16.6311 6.78611 15.5771 6.0131 14.3743 5.56846C13.1714 5.12382 11.868 5.02537 10.6121 5.28431C9.35613 5.54324 8.19794 6.14917 7.26907 7.03329C6.34019 7.9174 5.67785 9.04427 5.35726 10.2859H6.69868C7.04905 9.20219 7.72315 8.25188 8.63016 7.563C9.53717 6.87412 10.6335 6.47977 11.7715 6.43307C12.9095 6.38637 14.0345 6.68957 14.9949 7.30183C15.9553 7.91408 16.705 8.80597 17.143 9.85735H15.7115C15.3152 9.17001 14.7358 8.6062 14.0379 8.2287C13.3401 7.8512 12.5511 7.67485 11.7589 7.71928C10.9667 7.76371 10.2024 8.02718 9.55112 8.48034C8.89983 8.93351 8.38713 9.55857 8.07011 10.2859H12.4287V11.5716H7.73583C7.69305 12.001 7.71472 12.4344 7.80011 12.8574H17.5073C17.3211 14.0579 16.7477 15.1647 15.8743 16.0091C15.0009 16.8536 13.8755 17.3894 12.6694 17.5351C11.4632 17.6807 10.2426 17.428 9.19334 16.8157C8.14408 16.2033 7.32373 15.2648 6.85726 14.1431H5.48583C5.93704 15.5146 6.8097 16.7088 7.97942 17.5553C9.14914 18.4018 10.5562 18.8575 12.0001 18.8574ZM5.1944 12.8574H6.49297C6.42804 12.432 6.41222 12.0006 6.44583 11.5716H5.16011C5.13183 12.0003 5.14331 12.4308 5.1944 12.8574ZM12.0001 16.2859C12.7524 16.2859 13.4914 16.0879 14.1429 15.7117C14.7944 15.3356 15.3354 14.7946 15.7115 14.1431H8.28868C8.66483 14.7946 9.20583 15.3356 9.85732 15.7117C10.5088 16.0879 11.2478 16.2859 12.0001 16.2859Z" fill="#FF5D01"/>
</g>
<defs>
<clipPath id="clip0_31_9783">
<rect width="24" height="24" fill="white"/>
</clipPath>
</defs>
</svg>

<svg xmlns="http://www.w3.org/2000/svg" width="24" height="24" fill="none" viewBox="0 0 24 24"><g clip-path="url(#a)"><path fill="#F0F3FA" d="M0 0h24v24H0z"/><path fill="#FF5D01" d="M12 18.857a6.858 6.858 0 1 0-6.643-8.571H6.7a5.571 5.571 0 0 1 10.444-.429h-1.432a4.285 4.285 0 0 0-7.64.429h4.358v1.286H7.736a4.3 4.3 0 0 0 .064 1.285h9.707a5.572 5.572 0 0 1-10.65 1.286H5.486A6.86 6.86 0 0 0 12 18.857m-6.806-6h1.299a5.6 5.6 0 0 1-.047-1.285H5.16a7 7 0 0 0 .034 1.285M12 16.286a4.29 4.29 0 0 0 3.711-2.143H8.29A4.29 4.29 0 0 0 12 16.286"/></g><defs><clipPath id="a"><path fill="#fff" d="M0 0h24v24H0z"/></clipPath></defs></svg>
